img/icons/like.svg

<svg fill="none" height="24" viewBox="0 0 24 24" width="24" xmlns="http://www.w3.org/2000/svg"><path d="m20.7633 12.5094c.3937-.5203.6117-1.1578.6117-1.8211 0-1.05234-.5883-2.04843-1.5352-2.6039-.2437-.14298-.5213-.21823-.8039-.21797h-5.6203l.1407-2.88047c.0328-.69609-.2133-1.35703-.6915-1.86094-.2346-.24837-.5177-.44598-.8317-.58062-.314-.13465-.6524-.20346-.994-.20219-1.21879 0-2.29691.82031-2.62035 1.99453l-2.01328 7.28906h-3.03047c-.41484 0-.75.3352-.75.75v8.5313c0 .4148.33516.75.75.75h14.093c.2156 0 .4265-.0422.6211-.1266 1.1156-.4758 1.8351-1.5656 1.8351-2.775 0-.2953-.0422-.5859-.1265-.8672.3937-.5203.6117-1.1578.6117-1.8211 0-.2953-.0422-.5859-.1266-.8672.3938-.5203.6117-1.1578.6117-1.8211-.0047-.2953-.0468-.5883-.1312-.8695zm-16.4508 7.4602v-6.6563h1.89844v6.6563zm14.9156-8.2735-.5133.4453.3258.5953c.1074.1961.163.4163.1617.6399 0 .3867-.1687.7547-.4593 1.0078l-.5133.4453.3258.5953c.1073.1961.163.4163.1617.6399 0 .3867-.1688.7547-.4594 1.0078l-.5133.4453.3258.5953c.1073.1961.163.4163.1617.6398 0 .525-.3093.9985-.7875 1.2141h-9.73356v-6.7289l2.33206-8.44921c.0601-.21657.1892-.40762.3677-.54423.1784-.13661.3966-.21132.6213-.21281.1782 0 .3539.05157.4946.15704.232.17343.3562.43593.3421.71484l-.225 4.65h7.3688c.4172.25547.675.68667.675 1.13437 0 .3867-.1687.7523-.4594 1.0078z" fill="#8c8c8c"/></svg>

<svg width="24" height="24" viewBox="0 0 24 24" fill="none" xmlns="http://www.w3.org/2000/svg">
<path d="M20.7633 12.5094C21.157 11.9891 21.375 11.3516 21.375 10.6883C21.375 9.63596 20.7867 8.63987 19.8398 8.0844C19.5961 7.94142 19.3185 7.86617 19.0359 7.86643H13.4156L13.5563 4.98596C13.5891 4.28987 13.343 3.62893 12.8648 3.12502C12.6302 2.87665 12.3471 2.67904 12.0331 2.5444C11.7191 2.40975 11.3807 2.34094 11.0391 2.34221C9.82031 2.34221 8.74219 3.16252 8.41875 4.33674L6.40547 11.6258H3.375C2.96016 11.6258 2.625 11.961 2.625 12.3758V20.9071C2.625 21.3219 2.96016 21.6571 3.375 21.6571H17.468C17.6836 21.6571 17.8945 21.6149 18.0891 21.5305C19.2047 21.0547 19.9242 19.9649 19.9242 18.7555C19.9242 18.4602 19.882 18.1696 19.7977 17.8883C20.1914 17.368 20.4094 16.7305 20.4094 16.0672C20.4094 15.7719 20.3672 15.4813 20.2828 15.2C20.6766 14.6797 20.8945 14.0422 20.8945 13.3789C20.8898 13.0836 20.8477 12.7906 20.7633 12.5094V12.5094ZM4.3125 19.9696V13.3133H6.21094V19.9696H4.3125ZM19.2281 11.6961L18.7148 12.1414L19.0406 12.7367C19.148 12.9328 19.2036 13.153 19.2023 13.3766C19.2023 13.7633 19.0336 14.1313 18.743 14.3844L18.2297 14.8297L18.5555 15.425C18.6628 15.6211 18.7185 15.8413 18.7172 16.0649C18.7172 16.4516 18.5484 16.8196 18.2578 17.0727L17.7445 17.518L18.0703 18.1133C18.1776 18.3094 18.2333 18.5296 18.232 18.7531C18.232 19.2781 17.9227 19.7516 17.4445 19.9672H7.71094V13.2383L10.043 4.78909C10.1031 4.57252 10.2322 4.38147 10.4107 4.24486C10.5891 4.10825 10.8073 4.03354 11.032 4.03205C11.2102 4.03205 11.3859 4.08362 11.5266 4.18909C11.7586 4.36252 11.8828 4.62502 11.8687 4.90393L11.6437 9.55393H19.0125C19.4297 9.8094 19.6875 10.2406 19.6875 10.6883C19.6875 11.075 19.5188 11.4406 19.2281 11.6961Z" fill="#8C8C8C"/>
</svg>
